komodo/Komodo-Biru/mimetypes/scalable/text-x-changelog.svg

<?xml version="1.0" encoding="UTF-8" standalone="no"?>
<!-- Created with Inkscape (http://www.inkscape.org/) -->

<svg
   xmlns:dc="http://purl.org/dc/elements/1.1/"
   xmlns:cc="http://creativecommons.org/ns#"
   xmlns:rdf="http://www.w3.org/1999/02/22-rdf-syntax-ns#"
   xmlns:svg="http://www.w3.org/2000/svg"
   xmlns="http://www.w3.org/2000/svg"
   xmlns:xlink="http://www.w3.org/1999/xlink"
   xmlns:sodipodi="http://sodipodi.sourceforge.net/DTD/sodipodi-0.dtd"
   xmlns:inkscape="http://www.inkscape.org/namespaces/inkscape"
   width="96"
   height="96"
   id="svg6307"
   version="1.1"
   inkscape:version="0.48.1 r9760"
   sodipodi:docname="text-x-changelog.svg">
  <defs
     id="defs6309">
    <filter
       color-interpolation-filters="sRGB"
       inkscape:collect="always"
       id="filter6279-2">
      <feGaussianBlur
         inkscape:collect="always"
         stdDeviation="0.8"
         id="feGaussianBlur6281-1" />
    </filter>
    <linearGradient
       inkscape:collect="always"
       xlink:href="#linearGradient3700-5"
       id="linearGradient9181"
       gradientUnits="userSpaceOnUse"
       gradientTransform="translate(0,-7.8515622e-6)"
       x1="48"
       y1="1052.3622"
       x2="48"
       y2="902.36218" />
    <linearGradient
       id="linearGradient3700-5">
      <stop
         id="stop3702-388"
         style="stop-color:#ebebeb;stop-opacity:1"
         offset="0" />
      <stop
         id="stop3704-31"
         style="stop-color:#fafafa;stop-opacity:1"
         offset="1" />
    </linearGradient>
    <linearGradient
       y2="138.66119"
       x2="48"
       y1="20.220806"
       x1="48"
       gradientUnits="userSpaceOnUse"
       id="linearGradient3111-89"
       xlink:href="#linearGradient3737-9-4"
       inkscape:collect="always" />
    <linearGradient
       id="linearGradient3737-9-4">
      <stop
         id="stop3739-2"
         style="stop-color:#ffffff;stop-opacity:1"
         offset="0" />
      <stop
         id="stop3741-1-7"
         style="stop-color:#ffffff;stop-opacity:0"
         offset="1" />
    </linearGradient>
    <clipPath
       id="clipPath3613-7">
      <rect
         width="84"
         height="84"
         rx="6"
         ry="6"
         x="6"
         y="6"
         id="rect3615-54"
         style="fill:#ffffff;fill-opacity:1;fill-rule:nonzero;stroke:none" />
    </clipPath>
    <filter
       x="-0.192"
       y="-0.192"
       width="1.3839999"
       height="1.3839999"
       color-interpolation-filters="sRGB"
       id="filter3794-81">
      <feGaussianBlur
         id="feGaussianBlur3796-2"
         stdDeviation="5.28" />
    </filter>
    <clipPath
       id="clipPath4049">
      <path
         d="m -88,6 c -3.324,0 -6,2.676 -6,6 l 0,72 c 0,3.324 2.676,6 6,6 l 72,0 c 3.324,0 6,-2.676 6,-6 l 0,-72 c 0,-3.324 -2.676,-6 -6,-6 l -72,0 z m 55.9375,22 8,8 L -56,67.9375 -75.9375,47.875 -68,39.9375 l 12,12 L -32.0625,28 z"
         inkscape:connector-curvature="0"
         id="path4051"
         style="fill:#ff00ff;fill-opacity:1;fill-rule:nonzero;stroke:none" />
    </clipPath>
    <filter
       x="-0.12743413"
       y="-0.16551641"
       width="1.2548683"
       height="1.3310328"
       color-interpolation-filters="sRGB"
       id="filter4053">
      <feGaussianBlur
         id="feGaussianBlur4055"
         stdDeviation="2.7540384" />
    </filter>
    <linearGradient
       y2="28"
       x2="49"
       y1="68"
       x1="49"
       gradientUnits="userSpaceOnUse"
       id="linearGradient3089-2"
       xlink:href="#linearGradient3697-6"
       inkscape:collect="always" />
    <linearGradient
       id="linearGradient3697-6">
      <stop
         id="stop3699-9"
         style="stop-color:#bababa;stop-opacity:1"
         offset="0" />
      <stop
         id="stop3701-2"
         style="stop-color:#d2d2d2;stop-opacity:1"
         offset="1" />
    </linearGradient>
  </defs>
  <sodipodi:namedview
     id="base"
     pagecolor="#ffffff"
     bordercolor="#666666"
     borderopacity="1.0"
     inkscape:pageopacity="0.0"
     inkscape:pageshadow="2"
     inkscape:zoom="3.959798"
     inkscape:cx="29.724849"
     inkscape:cy="54.306432"
     inkscape:document-units="px"
     inkscape:current-layer="layer1"
     showgrid="false"
     inkscape:window-width="1280"
     inkscape:window-height="725"
     inkscape:window-x="0"
     inkscape:window-y="25"
     inkscape:window-maximized="1" />
  <metadata
     id="metadata6312">
    <rdf:RDF>
      <cc:Work
         rdf:about="">
        <dc:format>image/svg+xml</dc:format>
        <dc:type
           rdf:resource="http://purl.org/dc/dcmitype/StillImage" />
        <dc:title></dc:title>
      </cc:Work>
    </rdf:RDF>
  </metadata>
  <g
     inkscape:label="Layer 1"
     inkscape:groupmode="layer"
     id="layer1"
     transform="translate(0,-956.36218)">
    <g
       id="g6878">
      <rect
         transform="translate(0,-7.8515622e-6)"
         y="964.36218"
         x="8"
         height="80"
         width="80"
         id="rect9283"
         style="fill:#000000;fill-opacity:1;stroke:none;filter:url(#filter6279-2)"
         rx="5"
         ry="5" />
      <rect
         ry="5"
         rx="5"
         style="fill:url(#linearGradient9181);fill-opacity:1;stroke:none"
         id="rect9285"
         width="80"
         height="80"
         x="8"
         y="964.36218" />
      <g
         id="layer3"
         style="display:inline"
         transform="translate(0,956.36218)">
        <rect
           style="opacity:0.5;fill:url(#linearGradient3111-89);fill-opacity:1;fill-rule:nonzero;stroke:#ffffff;stroke-width:0.5;stroke-linecap:round;stroke-linejoin:miter;stroke-miterlimit:4;stroke-opacity:1;stroke-dasharray:none;stroke-dashoffset:0;display:inline;filter:url(#filter3794-81)"
           id="rect3171"
           clip-path="url(#clipPath3613-7)"
           y="15"
           x="15"
           ry="12"
           rx="12"
           height="66"
           width="66" />
      </g>
      <g
         id="g3064"
         style="display:inline"
         transform="translate(0,956.36218)">
        <path
           d="M -75.93376,47.86752 -68,39.93376 l 12,12 L -32.06624,28 l 8,8 L -56,67.93376 -75.93376,47.86752 z"
           inkscape:connector-curvature="0"
           transform="translate(100,0)"
           clip-path="url(#clipPath4049)"
           id="path4040"
           style="opacity:0.6;fill:none;stroke:#ffffff;stroke-width:2;stroke-miterlimit:4;stroke-dasharray:none;filter:url(#filter4053)" />
        <path
           d="M 24.06624,47.86752 32,39.93376 l 12,12 L 67.93376,28 l 8,8 L 44,67.93376 24.06624,47.86752 z"
           inkscape:connector-curvature="0"
           id="path3977"
           style="fill:url(#linearGradient3089-2);fill-opacity:1;stroke:none" />
      </g>
    </g>
  </g>
</svg>

<?xml version="1.0" encoding="UTF-8" standalone="no"?>
<!-- Created with Inkscape (http://www.inkscape.org/) -->
<svg id="svg6307" xmlns:rdf="http://www.w3.org/1999/02/22-rdf-syntax-ns#" xmlns="http://www.w3.org/2000/svg" height="96" width="96" version="1.1" xmlns:cc="http://creativecommons.org/ns#" xmlns:xlink="http://www.w3.org/1999/xlink" xmlns:dc="http://purl.org/dc/elements/1.1/">
 <defs id="defs6309">
  <filter id="filter6279-2" color-interpolation-filters="sRGB">
   <feGaussianBlur id="feGaussianBlur6281-1" stdDeviation="0.8"/>
  </filter>
  <linearGradient id="linearGradient9181" y2="902.36" gradientUnits="userSpaceOnUse" x2="48" gradientTransform="translate(0 -.0000078516)" y1="1052.4" x1="48">
   <stop id="stop3702-388" style="stop-color:#ebebeb" offset="0"/>
   <stop id="stop3704-31" style="stop-color:#fafafa" offset="1"/>
  </linearGradient>
  <linearGradient id="linearGradient3111-89" y2="138.66" gradientUnits="userSpaceOnUse" y1="20.221" x2="48" x1="48">
   <stop id="stop3739-2" style="stop-color:#fff" offset="0"/>
   <stop id="stop3741-1-7" style="stop-color:#fff;stop-opacity:0" offset="1"/>
  </linearGradient>
  <clipPath id="clipPath3613-7">
   <rect id="rect3615-54" style="fill:#fff" rx="6" ry="6" height="84" width="84" y="6" x="6"/>
  </clipPath>
  <filter id="filter3794-81" height="1.384" width="1.384" color-interpolation-filters="sRGB" y="-.192" x="-.192">
   <feGaussianBlur id="feGaussianBlur3796-2" stdDeviation="5.28"/>
  </filter>
  <clipPath id="clipPath4049">
   <path id="path4051" style="fill:#f0f" d="m-88 6c-3.324 0-6 2.676-6 6v72c0 3.324 2.676 6 6 6h72c3.324 0 6-2.676 6-6v-72c0-3.324-2.676-6-6-6h-72zm55.938 22 8 8l-31.938 31.938-19.938-20.063 7.938-7.937 12 12 23.938-23.938z"/>
  </clipPath>
  <filter id="filter4053" height="1.331" width="1.2549" color-interpolation-filters="sRGB" y="-.16552" x="-.12743">
   <feGaussianBlur id="feGaussianBlur4055" stdDeviation="2.7540384"/>
  </filter>
  <linearGradient id="linearGradient3089-2" y2="28" gradientUnits="userSpaceOnUse" y1="68" x2="49" x1="49">
   <stop id="stop3699-9" style="stop-color:#bababa" offset="0"/>
   <stop id="stop3701-2" style="stop-color:#d2d2d2" offset="1"/>
  </linearGradient>
 </defs>
 <metadata id="metadata6312">
  <rdf:RDF>
   <cc:Work rdf:about="">
    <dc:format>image/svg+xml</dc:format>
    <dc:type rdf:resource="http://purl.org/dc/dcmitype/StillImage"/>
    <dc:title/>
   </cc:Work>
  </rdf:RDF>
 </metadata>
 <g id="layer1" transform="translate(0 -956.36)">
  <g id="g6878">
   <rect id="rect9283" ry="5" style="filter:url(#filter6279-2)" rx="5" transform="translate(0 -.0000078516)" height="80" width="80" y="964.36" x="8"/>
   <rect id="rect9285" style="fill:url(#linearGradient9181)" rx="5" ry="5" height="80" width="80" y="964.36" x="8"/>
   <g id="layer3" transform="translate(0 956.36)">
    <rect id="rect3171" style="opacity:.5;filter:url(#filter3794-81);stroke:#fff;stroke-linecap:round;stroke-width:.5;fill:url(#linearGradient3111-89)" clip-path="url(#clipPath3613-7)" rx="12" ry="12" height="66" width="66" y="15" x="15"/>
   </g>
   <g id="g3064" transform="translate(0 956.36)">
    <path id="path4040" style="opacity:.6;filter:url(#filter4053);stroke:#fff;stroke-width:2;fill:none" d="m-75.934 47.868 7.934-7.934l12 12 23.934-23.934 8 8-31.934 31.934-19.934-20.066z" clip-path="url(#clipPath4049)" transform="translate(100)"/>
    <path id="path3977" style="fill:url(#linearGradient3089-2)" d="m24.066 47.868 7.934-7.934l12 12 23.934-23.934 8 8-31.934 31.934-19.934-20.066z"/>
   </g>
  </g>
 </g>
</svg>
